images/improvement-icons8-idea.svg

<svg height="512pt" viewBox="0 0 512 512" width="512pt" xmlns="http://www.w3.org/2000/svg"><path d="m248 32c-83.8125 0-152 68.1875-152 152 0 39.78125 22.25 69.5 43.78125 98.25 17.1875 22.96875 33.375 44.84375 36.21875 69.75v56c0 28.15625 20.90625 51.46875 48 55.375v8.625c0 8.8125 7.1875 16 16 16h16c8.8125 0 16-7.1875 16-16v-8.625c27.09375-3.90625 48-27.21875 48-55.375v-48.8125c.125-27.96875 17.78125-51.75 36.5-76.9375 21.40625-28.75 43.5-58.46875 43.5-98.25 0-83.8125-68.1875-152-152-152zm0 16c75 0 136 61 136 136 0 34.5-20.5 62.0625-40.3125 88.71875-17.9375 24.125-36.4375 48.96875-39.3125 78.78125h-48.375v-23.5c0-4.40625-3.59375-8-8-8s-8 3.59375-8 8v23.53125h-47.78125c-2.90625-29.8125-21.5625-54.71875-39.625-78.875-19.96875-26.65625-40.59375-54.1875-40.59375-88.65625 0-75 61-136 136-136zm-1.09375 23.96875c-21.375.1875-42.25 6.46875-60.40625 18.40625-3.6875 2.40625-4.6875 7.375-2.25 11.0625 1.53125 2.34375 4.0625 3.59375 6.65625 3.59375 1.53125 0 3.03125-.40625 4.40625-1.3125 20.71875-13.625 45.625-18.625 70.15625-14.125 4.375.78125 8.53125-2.09375 9.3125-6.4375.8125-4.34375-2.0625-8.5-6.40625-9.28125-7.15625-1.34375-14.3125-1.96875-21.46875-1.90625zm55.96875 15.03125c-3.0625-.4375-6.28125.96875-8 3.78125-2.28125 3.8125-1.0625 8.71875 2.75 11 6.59375 4 12.75 8.8125 18.25 14.34375 1.5625 1.5625 3.625 2.34375 5.65625 2.34375 2.0625 0 4.125-.78125 5.6875-2.34375 3.125-3.125 3.125-8.1875 0-11.3125-6.46875-6.4375-13.625-12.0625-21.34375-16.71875-.9375-.5625-1.96875-.9375-3-1.09375zm-262.6875 5.09375c-3.125.0625-6.0625 1.9375-7.3125 5-1.625 4.09375.34375 8.78125 4.4375 10.40625l29.6875 12c.96875.40625 1.96875.59375 2.96875.59375 3.15625 0 6.1875-1.90625 7.4375-5 1.65625-4.125-.34375-8.78125-4.4375-10.4375l-29.65625-12c-1.03125-.40625-2.09375-.59375-3.125-.5625zm415.625 0c-1.03125-.03125-2.09375.15625-3.125.5625l-29.65625 12c-4.09375 1.65625-6.09375 6.3125-4.4375 10.4375 1.25 3.09375 4.28125 5 7.4375 5 1 0 2-.1875 2.96875-.59375l29.6875-12c4.09375-1.625 6.0625-6.3125 4.4375-10.40625-1.25-3.0625-4.1875-4.9375-7.3125-5zm-447.8125 83.90625c-4.40625 0-8 3.59375-8 8s3.59375 8 8 8h48c4.40625 0 8-3.59375 8-8s-3.59375-8-8-8zm432 0c-4.40625 0-8 3.59375-8 8s3.59375 8 8 8h48c4.40625 0 8-3.59375 8-8s-3.59375-8-8-8zm-224 32c-2.03125 0-4.09375.78125-5.65625 2.34375-3.125 3.125-3.125 8.1875 0 11.3125l16 16c1.5625 1.5625 3.59375 2.34375 5.65625 2.34375s4.09375-.78125 5.65625-2.34375c3.125-3.125 3.125-8.1875 0-11.3125l-16-16c-1.5625-1.5625-3.625-2.34375-5.65625-2.34375zm64 0c-2.03125 0-4.09375.78125-5.65625 2.34375l-32 32c-1.5 1.5-2.34375 3.53125-2.34375 5.65625v48c0 4.40625 3.59375 8 8 8s8-3.59375 8-8v-44.6875l29.65625-29.65625c3.125-3.125 3.125-8.1875 0-11.3125-1.5625-1.5625-3.625-2.34375-5.65625-2.34375zm-209.875 39.90625c-1.0625 0-2.125.1875-3.125.59375l-29.6875 12c-4.09375 1.625-6.0625 6.3125-4.4375 10.40625 1.28125 3.125 4.28125 5 7.4375 5 1 0 2.03125-.1875 3-.5625l29.65625-12c4.09375-1.65625 6.09375-6.3125 4.4375-10.4375-1.25-3.0625-4.1875-4.9375-7.28125-5zm355.75.03125c-3.09375.0625-6.03125 1.9375-7.28125 5-1.65625 4.09375.34375 8.78125 4.4375 10.4375l29.65625 11.96875c.96875.40625 2 .5625 3 .5625 3.15625 0 6.15625-1.875 7.4375-5 1.625-4.09375-.34375-8.75-4.4375-10.40625l-29.6875-12c-1-.40625-2.0625-.59375-3.125-.5625zm-233.875 120.0625h112v8.9375l-112 14zm112 25.0625v14.9375c0 .3125-.09375.625-.09375.96875l-81.25 10.15625c-4.375.53125-7.46875 4.53125-6.90625 8.90625.5 4.0625 3.9375 7 7.90625 7 .34375 0 .65625 0 1-.0625l75.09375-9.375c-6.53125 13.21875-20.03125 22.40625-35.75 22.40625h-32c-22.0625 0-40-17.9375-40-40v-.9375zm-64 70.9375h16v8h-16zm0 0" fill="#003e6b"/></svg>

<?xml version="1.0" encoding="UTF-8"?>
<svg xmlns="http://www.w3.org/2000/svg" xmlns:xlink="http://www.w3.org/1999/xlink" width="512pt" height="512pt" viewBox="0 0 512 512" version="1.1">
<g id="surface1307620">
<path style=" stroke:none;fill-rule:nonzero;fill:rgb(0%,24.313726%,41.960785%);fill-opacity:1;" d="M 248 32 C 164.1875 32 96 100.1875 96 184 C 96 223.78125 118.25 253.5 139.78125 282.25 C 156.96875 305.21875 173.15625 327.09375 176 352 L 176 408 C 176 436.15625 196.90625 459.46875 224 463.375 L 224 472 C 224 480.8125 231.1875 488 240 488 L 256 488 C 264.8125 488 272 480.8125 272 472 L 272 463.375 C 299.09375 459.46875 320 436.15625 320 408 L 320 359.1875 C 320.125 331.21875 337.78125 307.4375 356.5 282.25 C 377.90625 253.5 400 223.78125 400 184 C 400 100.1875 331.8125 32 248 32 Z M 248 48 C 323 48 384 109 384 184 C 384 218.5 363.5 246.0625 343.6875 272.71875 C 325.75 296.84375 307.25 321.6875 304.375 351.5 L 256 351.5 L 256 328 C 256 323.59375 252.40625 320 248 320 C 243.59375 320 240 323.59375 240 328 L 240 351.53125 L 192.21875 351.53125 C 189.3125 321.71875 170.65625 296.8125 152.59375 272.65625 C 132.625 246 112 218.46875 112 184 C 112 109 173 48 248 48 Z M 246.90625 71.96875 C 225.53125 72.15625 204.65625 78.4375 186.5 90.375 C 182.8125 92.78125 181.8125 97.75 184.25 101.4375 C 185.78125 103.78125 188.3125 105.03125 190.90625 105.03125 C 192.4375 105.03125 193.9375 104.625 195.3125 103.71875 C 216.03125 90.09375 240.9375 85.09375 265.46875 89.59375 C 269.84375 90.375 274 87.5 274.78125 83.15625 C 275.59375 78.8125 272.71875 74.65625 268.375 73.875 C 261.21875 72.53125 254.0625 71.90625 246.90625 71.96875 Z M 302.875 87 C 299.8125 86.5625 296.59375 87.96875 294.875 90.78125 C 292.59375 94.59375 293.8125 99.5 297.625 101.78125 C 304.21875 105.78125 310.375 110.59375 315.875 116.125 C 317.4375 117.6875 319.5 118.46875 321.53125 118.46875 C 323.59375 118.46875 325.65625 117.6875 327.21875 116.125 C 330.34375 113 330.34375 107.9375 327.21875 104.8125 C 320.75 98.375 313.59375 92.75 305.875 88.09375 C 304.9375 87.53125 303.90625 87.15625 302.875 87 Z M 40.1875 92.09375 C 37.0625 92.15625 34.125 94.03125 32.875 97.09375 C 31.25 101.1875 33.21875 105.875 37.3125 107.5 L 67 119.5 C 67.96875 119.90625 68.96875 120.09375 69.96875 120.09375 C 73.125 120.09375 76.15625 118.1875 77.40625 115.09375 C 79.0625 110.96875 77.0625 106.3125 72.96875 104.65625 L 43.3125 92.65625 C 42.28125 92.25 41.21875 92.0625 40.1875 92.09375 Z M 455.8125 92.09375 C 454.78125 92.0625 453.71875 92.25 452.6875 92.65625 L 423.03125 104.65625 C 418.9375 106.3125 416.9375 110.96875 418.59375 115.09375 C 419.84375 118.1875 422.875 120.09375 426.03125 120.09375 C 427.03125 120.09375 428.03125 119.90625 429 119.5 L 458.6875 107.5 C 462.78125 105.875 464.75 101.1875 463.125 97.09375 C 461.875 94.03125 458.9375 92.15625 455.8125 92.09375 Z M 8 176 C 3.59375 176 0 179.59375 0 184 C 0 188.40625 3.59375 192 8 192 L 56 192 C 60.40625 192 64 188.40625 64 184 C 64 179.59375 60.40625 176 56 176 Z M 440 176 C 435.59375 176 432 179.59375 432 184 C 432 188.40625 435.59375 192 440 192 L 488 192 C 492.40625 192 496 188.40625 496 184 C 496 179.59375 492.40625 176 488 176 Z M 216 208 C 213.96875 208 211.90625 208.78125 210.34375 210.34375 C 207.21875 213.46875 207.21875 218.53125 210.34375 221.65625 L 226.34375 237.65625 C 227.90625 239.21875 229.9375 240 232 240 C 234.0625 240 236.09375 239.21875 237.65625 237.65625 C 240.78125 234.53125 240.78125 229.46875 237.65625 226.34375 L 221.65625 210.34375 C 220.09375 208.78125 218.03125 208 216 208 Z M 280 208 C 277.96875 208 275.90625 208.78125 274.34375 210.34375 L 242.34375 242.34375 C 240.84375 243.84375 240 245.875 240 248 L 240 296 C 240 300.40625 243.59375 304 248 304 C 252.40625 304 256 300.40625 256 296 L 256 251.3125 L 285.65625 221.65625 C 288.78125 218.53125 288.78125 213.46875 285.65625 210.34375 C 284.09375 208.78125 282.03125 208 280 208 Z M 70.125 247.90625 C 69.0625 247.90625 68 248.09375 67 248.5 L 37.3125 260.5 C 33.21875 262.125 31.25 266.8125 32.875 270.90625 C 34.15625 274.03125 37.15625 275.90625 40.3125 275.90625 C 41.3125 275.90625 42.34375 275.71875 43.3125 275.34375 L 72.96875 263.34375 C 77.0625 261.6875 79.0625 257.03125 77.40625 252.90625 C 76.15625 249.84375 73.21875 247.96875 70.125 247.90625 Z M 425.875 247.9375 C 422.78125 248 419.84375 249.875 418.59375 252.9375 C 416.9375 257.03125 418.9375 261.71875 423.03125 263.375 L 452.6875 275.34375 C 453.65625 275.75 454.6875 275.90625 455.6875 275.90625 C 458.84375 275.90625 461.84375 274.03125 463.125 270.90625 C 464.75 266.8125 462.78125 262.15625 458.6875 260.5 L 429 248.5 C 428 248.09375 426.9375 247.90625 425.875 247.9375 Z M 192 368 L 304 368 L 304 376.9375 L 192 390.9375 Z M 304 393.0625 L 304 408 C 304 408.3125 303.90625 408.625 303.90625 408.96875 L 222.65625 419.125 C 218.28125 419.65625 215.1875 423.65625 215.75 428.03125 C 216.25 432.09375 219.6875 435.03125 223.65625 435.03125 C 224 435.03125 224.3125 435.03125 224.65625 434.96875 L 299.75 425.59375 C 293.21875 438.8125 279.71875 448 264 448 L 232 448 C 209.9375 448 192 430.0625 192 408 L 192 407.0625 Z M 240 464 L 256 464 L 256 472 L 240 472 Z M 240 464 "/>
</g>
</svg>
